flaticon/gastronomy/spices.svg

<svg xmlns="http://www.w3.org/2000/svg" width="32" height="32" viewBox="0 0 24 24">
    <path d="M 23.21875 12.769531 C 22.398438 11.375 21.128906 10.546875 19.8125 10.546875 C 19.804688 10.546875 19.796875 10.546875 19.789062 10.546875 C 18.753906 10.527344 18.050781 10.304688 17.675781 9.808594 C 17.300781 9.3125 17.308594 8.644531 17.363281 8.214844 L 19.246094 8.214844 C 20.191406 8.214844 20.957031 7.449219 20.957031 6.503906 L 20.957031 4.6875 C 20.957031 3.746094 20.191406 2.976562 19.246094 2.976562 L 4.625 2.976562 C 3.679688 2.976562 2.910156 3.746094 2.910156 4.6875 L 2.910156 6.503906 C 2.910156 7.449219 3.679688 8.214844 4.625 8.214844 L 6.636719 8.214844 C 6.691406 8.640625 6.695312 9.3125 6.328125 9.804688 C 5.953125 10.304688 5.214844 10.554688 4.210938 10.542969 C 2.875 10.527344 1.605469 11.367188 0.78125 12.769531 C -0.199219 14.445312 -0.261719 16.445312 0.621094 17.992188 C 1.378906 19.320312 3.152344 20.894531 7.265625 21.011719 C 7.347656 21.015625 7.421875 21.023438 7.507812 21.023438 L 16.300781 21.023438 C 20.726562 21.007812 22.59375 19.367188 23.378906 17.992188 C 24.261719 16.445312 24.199219 14.445312 23.21875 12.769531 Z M 4.625 7.050781 C 4.320312 7.050781 4.074219 6.804688 4.074219 6.503906 L 4.074219 4.6875 C 4.074219 4.386719 4.320312 4.140625 4.625 4.140625 L 19.246094 4.140625 C 19.546875 4.140625 19.792969 4.386719 19.792969 4.6875 L 19.792969 6.503906 C 19.792969 6.804688 19.546875 7.050781 19.246094 7.050781 Z M 7.699219 19.859375 C 7.519531 19.859375 7.347656 19.851562 7.175781 19.847656 C 6.589844 19.804688 6.183594 19.648438 6.0625 19.410156 C 5.9375 19.167969 6.074219 18.734375 6.425781 18.25 C 6.929688 17.554688 7.585938 16.386719 8.222656 15.261719 C 8.835938 14.179688 9.464844 13.0625 9.917969 12.433594 C 10.511719 11.613281 11.261719 11.148438 12.03125 11.128906 C 12.050781 11.128906 12.066406 11.128906 12.085938 11.128906 C 12.84375 11.128906 13.601562 11.550781 14.234375 12.332031 C 14.664062 12.859375 15.285156 13.875 15.886719 14.855469 C 16.523438 15.890625 17.179688 16.957031 17.675781 17.574219 C 17.9375 17.898438 18.34375 18.515625 18.109375 19.003906 C 17.855469 19.53125 16.925781 19.859375 15.679688 19.859375 Z M 22.367188 17.414062 C 21.921875 18.199219 21 19.089844 19.132812 19.546875 C 19.140625 19.535156 19.152344 19.519531 19.15625 19.503906 C 19.375 19.046875 19.589844 18.09375 18.582031 16.84375 C 18.128906 16.285156 17.492188 15.25 16.878906 14.246094 C 16.226562 13.1875 15.613281 12.1875 15.136719 11.597656 C 14.28125 10.539062 13.203125 9.960938 12.085938 9.960938 C 12.058594 9.960938 12.027344 9.960938 11.996094 9.964844 C 10.859375 9.996094 9.78125 10.628906 8.972656 11.75 C 8.480469 12.433594 7.863281 13.527344 7.210938 14.6875 C 6.589844 15.785156 5.949219 16.921875 5.480469 17.566406 C 4.96875 18.273438 4.769531 18.964844 4.894531 19.554688 C 3.007812 19.09375 2.082031 18.199219 1.632812 17.414062 C 0.824219 15.996094 1.183594 14.390625 1.789062 13.359375 C 2.394531 12.324219 3.289062 11.707031 4.1875 11.707031 C 4.207031 11.707031 4.234375 11.707031 4.261719 11.707031 C 5.652344 11.707031 6.660156 11.304688 7.261719 10.5 C 7.820312 9.753906 7.867188 8.84375 7.808594 8.214844 L 16.191406 8.214844 C 16.132812 8.84375 16.179688 9.753906 16.742188 10.5 C 17.339844 11.304688 18.347656 11.707031 19.738281 11.707031 C 19.765625 11.707031 19.792969 11.707031 19.8125 11.707031 C 20.710938 11.707031 21.605469 12.324219 22.214844 13.359375 C 22.816406 14.390625 23.175781 16 22.367188 17.414062 Z M 22.367188 17.414062"/>
    <path d="M12.9375 13.457031C12.9375 13.777344 12.675781 14.039062 12.355469 14.039062 12.035156 14.039062 11.773438 13.777344 11.773438 13.457031 11.773438 13.132812 12.035156 12.875 12.355469 12.875 12.675781 12.875 12.9375 13.132812 12.9375 13.457031zM11.191406 15.203125C11.191406 15.523438 10.929688 15.785156 10.609375 15.785156 10.289062 15.785156 10.027344 15.523438 10.027344 15.203125 10.027344 14.878906 10.289062 14.621094 10.609375 14.621094 10.929688 14.621094 11.191406 14.878906 11.191406 15.203125zM14.101562 16.367188C14.101562 16.6875 13.839844 16.949219 13.519531 16.949219 13.199219 16.949219 12.9375 16.6875 12.9375 16.367188 12.9375 16.042969 13.199219 15.785156 13.519531 15.785156 13.839844 15.785156 14.101562 16.042969 14.101562 16.367188zM14.101562 16.367188"/>
</svg>

<svg xmlns="http://www.w3.org/2000/svg" width="32" height="32" viewBox="0 0 24 24">
    <path d="M23.219 12.77c-.82-1.395-2.09-2.223-3.407-2.223h-.023c-1.035-.02-1.738-.242-2.113-.738s-.367-1.164-.313-1.594h1.883a1.71 1.71 0 0 0 1.711-1.711V4.688c0-.942-.766-1.711-1.71-1.711H4.624c-.945 0-1.715.77-1.715 1.71v1.817c0 .945.77 1.71 1.715 1.71h2.012c.054.427.058 1.098-.309 1.59-.375.5-1.113.75-2.117.739-1.336-.016-2.606.824-3.43 2.227-.98 1.675-1.043 3.675-.16 5.222.758 1.328 2.531 2.903 6.645 3.02.082.004.156.011.242.011H16.3c4.426-.015 6.293-1.656 7.078-3.03.883-1.548.82-3.548-.16-5.223zM4.625 7.05a.55.55 0 0 1-.55-.546V4.688c0-.301.245-.547.55-.547h14.621c.3 0 .547.246.547.546v1.817c0 .3-.246.547-.547.547zm3.074 12.81c-.18 0-.351-.008-.523-.012-.586-.043-.992-.2-1.114-.438-.125-.242.012-.676.364-1.16.504-.695 1.16-1.863 1.797-2.988.613-1.082 1.242-2.2 1.695-2.828.594-.82 1.344-1.286 2.113-1.305h.055c.758 0 1.516.422 2.148 1.203.43.527 1.051 1.543 1.653 2.523.636 1.036 1.293 2.102 1.789 2.72.262.323.668.94.433 1.429-.254.527-1.183.855-2.43.855zm14.668-2.446c-.445.785-1.367 1.676-3.234 2.133.008-.012.02-.027.023-.043.219-.457.434-1.41-.574-2.66-.453-.559-1.09-1.594-1.703-2.598-.652-1.059-1.266-2.059-1.742-2.648-.856-1.059-1.934-1.637-3.051-1.637-.027 0-.059 0-.09.004-1.137.031-2.215.664-3.023 1.785-.493.684-1.11 1.777-1.762 2.938-.621 1.097-1.262 2.234-1.73 2.878-.512.707-.711 1.399-.586 1.989-1.887-.461-2.813-1.356-3.262-2.14-.809-1.419-.45-3.024.156-4.056.606-1.035 1.5-1.652 2.399-1.652h.074c1.39 0 2.398-.402 3-1.207.558-.746.605-1.656.547-2.285h8.382c-.058.629-.011 1.539.551 2.285.598.805 1.606 1.207 2.996 1.207h.075c.898 0 1.792.617 2.402 1.652.601 1.032.96 2.641.152 4.055zm0 0"/>
    <path d="M12.938 13.457a.583.583 0 0 1-1.164 0 .581.581 0 1 1 1.163 0zm0 0M11.191 15.203c0 .32-.261.582-.582.582a.581.581 0 1 1 .582-.582zm0 0M14.102 16.367c0 .32-.262.582-.582.582a.581.581 0 1 1 .582-.582zm0 0"/>
</svg>
